X:1
T:Are You Counting the Cost?
T:Are You Counting the Cost?
T:William Thomas Dale
T:H. F. James, 1901
T:Public Domain Courtesy of the Cyber Hymnal™
T:Public Domain Courtesy of the Cyber Hymnal™
C:William Thomas Dale
Z:Public Domain
Z:Courtesy of the Cyber Hymnal™
%%score ( 1 2 ) ( 3 4 )
L:1/8
Q:1/4=97
M:4/4
K:A
V:1 treble 
V:2 treble 
V:3 bass 
V:4 bass 
V:1
 [CE]>[CA] | [Ec]2 [Ec]>[DB] [CA]2 [EA]>[EA] | [FB]2 [FA]>[DF] [CE]2 [CE]>[CE] | %3
w: 1.~As you|strive for the world, for its|fame and its joy, Have you|
w: 2.~In the|crav- ing for wealth, for its|glit- ter- ing show, In- to|
w: 3.~Leave the|rich- es of earth; seek the|trea- sures a- bove, And thro’|
 [EA]2 [EA]>[EA] [EA]2 [Ac]>[Ac] | [GB]6 [CE]>[CA] | [Ec]2 [Ec]>[DB] [CA]2 [EA]>[EA] | %6
w: care- ful- ly count- ed the|cost? Is the|prize rich e- nough all your|
w: grief and des- pair you are|cast; And you|know not the peace Heav’n a-|
w: years that un- ceas- ing- ly|roll, Heav’n- ly|pow’rs shall be yours with the|
 [FB]2 [FA]>[DF] [CE]2 [CE]>[CE] | [EA]2 [EA]>[EA] [Ac]2 [GB]>[GB] | A6 ||"^Refrain" [Ec]>[Ed] | %10
w: strength to em- ploy, When to|win it the soul must be|lost?||
w: lone can be- stow, While your|soul will be lost at the|last.|Are you|
w: full- ness of love, And the|life, end- less life of the|soul.||
 [Ae]2 [Ae]>[Ae] [Ae]2 [Bd]>[Ac] | d6 [GB]>[Ac] | [Bd]2 [Bd]>[Bd] [Bd]2 [Be]>[GB] | c6 [Ec]>[Ed] | %14
w: ||||
w: care- ful- ly count- ing the|cost? Have you|thought what it means to be|lost? For the|
w: ||||
 [Ae]2 [Ae]>[Ae] [Ae]2 [Ac]>[Ac] | [FB]2 [FA]>[FA] !fermata![Fd]2 [Fd]>[Fd] | %16
w: ||
w: joys that de- cline, do you|Heav- en re- sign? Are you|
w: ||
 [Ec]2 [Ec]>[CA] [DB]2 [Ec]>[DB] | A6 |] %18
w: ||
w: count- ing the ter- ri- ble|cost?|
w: ||
V:2
 x2 | x8 | x8 | x8 | x8 | x8 | x8 | x8 | A6 || x2 | x8 | (G2 G>G G2) x2 | x8 | (A2 A>A A2) x2 | %14
 x8 | x8 | x8 | (C2 DD C2) |] %18
V:3
 [A,,A,]>[A,,A,] | [A,,A,]2 [A,,A,]>[A,,A,] [A,,A,]2 [C,A,]>[C,A,] | %2
w: ~ ~|~ ~ ~ ~ ~ ~|
 [D,A,]2 [D,A,]>[D,A,] [A,,A,]2 [A,,A,]>[A,,A,] | [A,,C]2 [A,,C]>[A,,C] [A,C]2 [A,E]>[A,E] | %4
w: ~ ~ ~ ~ ~ ~|~ ~ ~ ~ ~ ~|
 [E,E]6 [A,,A,]>[A,,A,] | [A,,A,]2 [A,,A,]>[A,,A,] [A,,A,]2 [C,A,]>[C,A,] | %6
w: ~ ~ ~|~ ~ ~ ~ ~ ~|
 [D,A,]2 [D,A,]>[D,A,] [A,,A,]2 [A,,A,]>[A,,A,] | [A,C]2 [A,C]>[A,C] [E,E]2 [E,D]>[E,D] | %8
w: ~ ~ ~ ~ ~ ~|~ ~ ~ ~ ~ ~|
 [A,,C]6 || [A,,A,]>[A,,B,] | [A,,C]2 [A,,C]>[A,,C] [A,C]2 [G,E]>[A,E] | %11
w: ~|~ ~|~ ~ ~ ~ ~ ~|
 [E,E]2 [E,E]>[E,E] [E,E]2 [E,E]>[E,E] | [E,E]2 [E,E]>[E,E] [E,E]2 [E,E]>[E,E] | %13
w: count- ing the cost? ~ ~|~ ~ ~ ~ ~ ~|
 [A,,E]2 [A,,E]>[A,,E] [A,,E]2 [A,,A,]>[A,,B,] | [A,,C]2 [A,,C]>[A,,C] [A,,C]2 [C,E]>[C,E] | %15
w: ~ to be lost? ~ ~|~ ~ ~ ~ ~ ~|
 [D,D]2 [D,D]>[D,D] !fermata![D,A,]2 [D,A,]>[D,A,] | [E,A,]2 [E,A,]>[E,A,] [E,G,]2 [E,G,]>[E,G,] | %17
w: ~ ~ ~ ~ ~ ~|~ ~ ~ ~ ~ ~|
 A,2 F,F, E,2 |] %18
w: ter- ri- ble cost?|
V:4
 x2 | x8 | x8 | x8 | x8 | x8 | x8 | x8 | x6 || x2 | x8 | x8 | x8 | x8 | x8 | x8 | x8 | A,,6 |] %18

